X:245
T:The Humours of Castlefin
M:4/4
L:1/8
K:Em
BEGE BEGB|ADED FG A2|BG E2 BFAF|GBAF E2 FA|
BE E2 BEGB|AD F/E/D FGAc|BE E2 BFAF|GBAF E3 A ||
B2 ed efge|defg afed|B2 ed efge|agfa geed|
B2 ed efge|defg afdf|efga bagf|e2 fd e^cdc |>|
